X:1
T:12 Deutsche und Italiänische Romantische Gesänge
T:Wohl dem Mann
T:Zwölf Deutsche und Italiänische Romantische Gesänge
T:4. Wohl dem Mann
T:Louise Reichardt
T:Johann Ludwig Tieck
T:Aber hier ist Abendröthe Nur ein Schein von Morgenroth Und die kleine Schäferflöte Klinget bis zu unserm Tod.
T:OpenScore (CC0)
C:Louise Reichardt
Z:Johann Ludwig Tieck
Z:OpenScore (CC0)
%%score 1 { 2 | 3 }
L:1/8
Q:1/4=120
M:3/4
K:Ab
V:1 treble nm="Voice"
V:2 treble nm="Piano"
V:3 bass 
V:1
"^Mässig" c d |: e3 c d B | c2 A2 c d | e3 c d B | c4 B c | d2 B2 c d | (e2 a) e e d | c3 e d B | %8
w: Wohl dem|Mann der in der|Stil- le sei- ne|klei- ne Heer- de|führt, fern von|Men- schen in der|Hül- * le dunk- ler|Baü- me sie re-|
 A4 c d :| z6 | z4 |] %11
w: giert! Wo er|||
V:2
 [Ac][Bd] |: [ce]E [ce]E [Bd]E | [Ac]E [Ac]E [Ac][Bd] | [ce]E [ce]E [Bd]E | [Ac]E [Ac]E [GB][Ac] | %5
 [Bd]E [GB]E [Ac][Bd] | [ce]E [ce]E [ce][Bd] | [Ac]E [Ac]E [GB]E | [CA]E [CA][EB] [Ac][Bd] :| %9
 [ce]E [Ac]E [GB]D | [CA]4 |] %11
V:3
 z2 |: A,4 E,2 | A,,4 z2 | A,4 E,2 | A,,4 z2 | E,4 z2 | A,4 z2 | E,2 E,2 E,2 | A,,4 z2 :| %9
 E,2 E,2 E,2 | A,,4 |] %11

